fastspring.svg

<?xml version="1.0" encoding="UTF-8"?>
<svg width="251px" height="64px" viewBox="0 0 251 64" version="1.1" xmlns="http://www.w3.org/2000/svg" xmlns:xlink="http://www.w3.org/1999/xlink">
    <!-- Generator: Sketch 48.2 (47327) - http://www.bohemiancoding.com/sketch -->
    <title>fastspring</title>
    <desc>Created with Sketch.</desc>
    <defs></defs>
    <g id="Page-1" stroke="none" stroke-width="1" fill="none" fill-rule="evenodd">
        <g id="fastspring" fill="#ABB3C1" fill-rule="nonzero">
            <path d="M182.58,25.84 C187.08,25.94 191.68,26.96 192.4,28 C192.37249,28.7548752 192.921579,29.4077288 193.67,29.51 C194.475274,29.3863295 195.039841,28.649746 194.95,27.84 C194.95,23.67 188.27,22.64 182.63,22.5 C178.2,22.5 170.71,23.73 170.71,28.34 C170.710907,29.4108175 171.152064,30.4341563 171.93,31.17 C172.488774,31.6933953 173.126612,32.1253708 173.82,32.45 C172.08,33.3 170.82,34.53 170.67,36.27 C170.662338,36.4098952 170.662338,36.5501048 170.67,36.69 C170.67,39.63 173.67,41.19 177.07,41.94 C178.881516,42.3473412 180.733271,42.5486189 182.59,42.54 C185.293601,42.4786855 187.972283,43.0686129 190.4,44.26 C190.783601,44.4213262 191.027197,44.803353 191.011631,45.2192054 C190.996064,45.6350579 190.724588,45.9978039 190.33,46.13 C187.884535,47.1370411 185.253358,47.6141975 182.61,47.53 C178.11,47.43 173.51,46.41 172.79,45.37 C172.879153,44.9917221 172.784282,44.5935623 172.534126,44.2961328 C172.28397,43.9987033 171.90796,43.8369975 171.52,43.86 C170.714726,43.9836705 170.150159,44.720254 170.24,45.53 C170.24,49.7 176.92,50.73 182.56,50.87 C186.99,50.87 194.48,49.64 194.48,45.03 C194.479093,43.9591825 194.037936,42.9358437 193.26,42.2 C192.701226,41.6766047 192.063388,41.2446292 191.37,40.92 C193.11,40.07 194.37,38.84 194.52,37.1 C194.527486,36.9601001 194.527486,36.8198999 194.52,36.68 C194.52,33.74 191.52,32.18 188.12,31.43 C186.308456,31.0228275 184.456721,30.8215519 182.6,30.83 C179.08,30.83 176.73,30.37 174.6,29.03 C174.302699,28.8665874 174.117968,28.5542515 174.117968,28.215 C174.117968,27.8757485 174.302699,27.5634126 174.6,27.4 C176.13,26.43 178.69,25.85 182.58,25.84 Z M182.58,34.19 C183.760846,34.1868977 184.94044,34.2670967 186.11,34.43 C187.74373,34.6376162 189.328015,35.131859 190.79,35.89 C191.066429,36.0757617 191.232237,36.3869525 191.232237,36.72 C191.232237,37.0530475 191.066429,37.3642383 190.79,37.55 C189.418919,38.2774686 187.93464,38.7677204 186.4,39 C185.139102,39.1912762 183.865314,39.2848879 182.59,39.28 C181.409154,39.2831023 180.22956,39.2029033 179.06,39.04 C177.42627,38.8323838 175.841985,38.338141 174.38,37.58 C174.103571,37.3942383 173.937763,37.0830475 173.937763,36.75 C173.937763,36.4169525 174.103571,36.1057617 174.38,35.92 C175.765371,35.1986702 177.263443,34.7184757 178.81,34.5 C180.063523,34.2997034 181.33059,34.1960648 182.6,34.19 L182.58,34.19 Z" id="Shape"></path>
            <path d="M11.86,36 L4.6,35.93 L4.6,50.93 L0,50.93 L0,16.79 L18.76,16.79 C18.7517124,16.8731273 18.7517124,16.9568727 18.76,17.04 L18.76,17.72 C18.7985391,18.7029059 18.6103487,19.6814956 18.21,20.58 L13.69,20.43 L11.58,20.38 L9.27,20.33 C7.75666667,20.2966667 6.2,20.28 4.6,20.28 L4.6,32.56 L6.08,32.56 L7.99,32.56 L10.1,32.56 L12.94,32.5 L17.44,32.41 C17.4330147,32.509878 17.4330147,32.610122 17.44,32.71 L17.44,33.54 C17.449472,34.4143919 17.338428,35.2859197 17.11,36.13 C15.2633333,36.0766667 13.5133333,36.0333333 11.86,36 Z" id="Shape"></path>
            <path d="M35.25,49 C33.5739651,50.6932181 31.2477756,51.5792119 28.87,51.43 C26.596455,51.5255776 24.3812178,50.6957656 22.73,49.13 C21.1757257,47.5813716 20.3415075,45.4523019 20.43,43.26 C20.43,39.1466667 22.21,36.5933333 25.77,35.6 C27.044776,35.259348 28.352089,35.0548709 29.67,34.99 L36.4,34.62 L36.4,32 C36.4,29.9 35.9733333,28.4033333 35.12,27.51 C34.2666667,26.6166667 32.64,26.18 30.24,26.2 C27.8680181,26.1984266 25.537117,26.8190807 23.48,28 C22.7488997,26.9910635 22.2814153,25.8154779 22.12,24.58 C24.5988524,23.3004935 27.3318534,22.5899133 30.12,22.5 C32.0122281,22.4347064 33.9042057,22.6366969 35.74,23.1 C36.9011201,23.4205016 37.9656756,24.0214603 38.84,24.85 C40.28,26.2833333 41,28.56 41,31.68 L41,46.79 L43.72,49.57 L43.72,50.9 L39.1,50.9 L37,49 L35.25,49 Z M30.71,47.64 C32.783905,47.7252545 34.8143375,47.0294121 36.4,45.69 L36.4,37.84 L30.23,38.24 C26.83,38.42 25.13,40.0033333 25.13,42.99 C25.13,45.4833333 26.2333333,46.96 28.44,47.42 C29.190273,47.5724786 29.9544148,47.6462116 30.72,47.64 L30.71,47.64 Z" id="Shape"></path>
            <path d="M64,27.35 C62.1276893,26.4669804 60.0679097,26.0550245 58,26.15 C56.6669258,26.0455135 55.3278969,26.2544157 54.09,26.76 C53.4556804,27.1025461 52.9293365,27.6150388 52.57,28.24 C52.2505744,28.8576238 52.0890998,29.5447496 52.1,30.24 C52.0653479,30.8331425 52.1295568,31.427919 52.29,32 C52.4620477,32.4350277 52.7531665,32.8127889 53.13,33.09 C54.3231653,33.8511608 55.6555979,34.3678183 57.05,34.61 C58.5525434,34.9510013 60.0242457,35.4159255 61.45,36 C62.4178601,36.3846476 63.3086932,36.9401481 64.08,37.64 C65.4823561,39.062628 66.2101014,41.0166243 66.08,43.01 C66.08,47.05 64.08,49.6666667 60.08,50.86 C58.6817069,51.2586764 57.2339989,51.4573154 55.78,51.45 C52.858805,51.5192756 49.9480813,51.075898 47.18,50.14 C47.1231256,48.8312029 47.3588468,47.5261953 47.87,46.32 C49.9301804,46.9709267 52.0631148,47.3639241 54.22,47.49 C55.6466667,47.49 56.7233333,47.46 57.45,47.4 C58.1145295,47.3551401 58.7652435,47.1890725 59.37,46.91 C60.5633333,46.3433333 61.16,45.1766667 61.16,43.41 C61.2526816,41.6833426 60.1145694,40.130991 58.44,39.7 C57.705184,39.4608167 56.9572977,39.2638288 56.2,39.11 C50.2533333,37.9166667 47.28,35.2833333 47.28,31.21 C47.1305582,28.6717084 48.227717,26.2198942 50.22,24.64 C52.0733333,23.2133333 54.7066667,22.5 58.12,22.5 C60.5739922,22.3814569 63.0202381,22.8583548 65.25,23.89 C65.0990718,25.122717 64.6717828,26.3054531 64,27.35 Z" id="Shape"></path>
            <path d="M87.77,49.59 C85.7151291,50.9094253 83.2989124,51.5528173 80.86,51.43 C77.0666667,51.43 74.7966667,49.9166667 74.05,46.89 C73.7862564,45.7526428 73.6620084,44.5873982 73.68,43.42 L73.68,27.64 L69.8,27.64 C69.7278641,27.0025259 69.691141,26.3615415 69.69,25.72 C69.69,25.1666667 69.7266667,24.5333333 69.8,23.82 L73.67,23.82 L73.67,19 L76.55,15.74 L78.26,15.74 L78.26,23.86 L86.32,23.86 C86.3818654,24.3909902 86.4085902,24.925487 86.4,25.46 C86.3782846,26.2357599 86.1762878,26.9958156 85.81,27.68 L78.26,27.68 L78.26,43.42 C78.1642417,44.5312413 78.4576442,45.641222 79.09,46.56 C79.8621506,47.3042704 80.9232196,47.6701563 81.99,47.56 C83.5930529,47.4981402 85.1560074,47.0412766 86.54,46.23 C87.2235153,47.2300404 87.6463203,48.3850198 87.77,49.59 Z" id="Shape"></path>
            <path d="M95.48,49.82 C95.6001009,48.44224 95.9376137,47.0921887 96.48,45.82 C98.9008303,46.6752942 101.434996,47.1672997 104,47.28 C105.474078,47.3201334 106.948399,47.2095593 108.4,46.95 C109.234378,46.7813669 110.024488,46.4408021 110.72,45.95 C111.876098,45.0135848 112.487754,43.5613706 112.35,42.08 C112.485714,40.74297 112.066326,39.4088823 111.19,38.39 C109.79765,37.358256 108.179741,36.6727011 106.47,36.39 C104.600194,35.9647924 102.77525,35.3620584 101.02,34.59 C99.8523796,34.0620143 98.7836439,33.3382502 97.86,32.45 C96.3055644,30.7995229 95.4959166,28.5838348 95.62,26.32 C95.62,22.8733333 96.71,20.2866667 98.89,18.56 C100.93,16.9333333 103.776667,16.12 107.43,16.12 C110.476684,15.9735286 113.509133,16.6213702 116.23,18 C116.061873,19.3068311 115.570364,20.5510692 114.8,21.62 C112.758356,20.5097991 110.451399,19.9806171 108.13,20.09 C105.356667,20.09 103.413333,20.52 102.3,21.38 C101.131952,22.3668125 100.510388,23.8555896 100.63,25.38 C100.502324,26.7523344 100.968238,28.1136768 101.91,29.12 C103.345195,30.1889315 105.002991,30.9204127 106.76,31.26 C108.600156,31.7028684 110.40507,32.2811095 112.16,32.99 C113.30032,33.4684016 114.346578,34.1455909 115.25,34.99 C116.743333,36.3966667 117.49,38.5066667 117.49,41.32 C117.49,44.8333333 116.526667,47.4133333 114.6,49.06 C112.673333,50.7066667 109.71,51.56 105.71,51.62 C102.215482,51.6898064 98.7408115,51.0784274 95.48,49.82 Z" id="Shape"></path>
            <path d="M132.93,51.43 C131.162595,51.4454706 129.398792,51.267749 127.67,50.9 L127.67,61.44 L123.08,61.44 L123.08,26.58 L120.92,24.36 L120.92,23 L125,23 L127.16,24.9 L128.84,24.9 C129.771566,24.0303015 130.895424,23.3929921 132.12,23.04 C133.352241,22.6663664 134.632366,22.4743477 135.92,22.47 C137.226815,22.4783815 138.522422,22.7117938 139.75,23.16 C141.089474,23.6488988 142.290445,24.4552648 143.25,25.51 C145.51,27.93 146.64,31.65 146.64,36.67 C146.64,41.21 145.286667,44.84 142.58,47.56 C140.041681,50.1361454 136.544945,51.5384634 132.93,51.43 Z M136.61,26.71 C135.302491,26.3834541 133.957381,26.2321293 132.61,26.26 C130.805261,26.3356935 129.064228,26.9485373 127.61,28.02 L127.61,47.37 C128.910746,47.7388888 130.258069,47.9174091 131.61,47.9 C133.020094,47.9150096 134.418485,47.6428166 135.72,47.1 C136.966656,46.5978379 138.08676,45.8260588 139,44.84 C140.911408,42.5711286 141.893815,39.6632034 141.75,36.7 C141.763333,30.98 140.05,27.65 136.61,26.71 Z" id="Shape"></path>
            <path d="M165.68,27.62 C164.728402,27.2343158 163.706145,27.0537171 162.68,27.09 C160.971885,26.9889703 159.301896,27.6220378 158.09,28.83 C157.62409,29.323006 157.281424,29.9192436 157.09,30.57 L157.09,50.9 L152.5,50.9 L152.5,26.58 L150.34,24.36 L150.34,23 L154.18,23 L156.77,25.67 L157.86,25.67 C158.793961,24.3638884 160.106438,23.3760403 161.62,22.84 C162.257278,22.5913292 162.935936,22.4657774 163.62,22.47 C164.798213,22.4295108 165.976297,22.5540511 167.12,22.84 C167.047116,24.5286551 166.552022,26.1720895 165.68,27.62 Z" id="Shape"></path>
            <path d="M217.27,27.75 C216.29,26.7566667 214.58,26.2566667 212.14,26.25 C210.035729,26.1425964 207.961942,26.7877744 206.29,28.07 L206.29,50.9 L201.7,50.9 L201.7,26.58 L199.54,24.36 L199.54,23 L203.86,23 L205.73,24.9 L207.44,24.9 C208.44286,24.0713492 209.597771,23.4463384 210.84,23.06 C212.042975,22.6761198 213.29728,22.4771845 214.56,22.47 C215.763644,22.4647799 216.957599,22.6852546 218.08,23.12 C219.181941,23.5198847 220.17988,24.1623937 221,25 C222.670839,26.8622629 223.534059,29.3116494 223.4,31.81 L223.4,50.9 L218.78,50.9 L218.78,32.4 C218.910753,30.7113803 218.367887,29.0396418 217.27,27.75 Z" id="Shape"></path>
            <path d="M244.57,46.46 C248.663333,46.46 250.71,48.8366667 250.71,53.59 C250.77084,56.2376538 249.549206,58.7516873 247.43,60.34 C245.15,62.1533333 241.983333,63.06 237.93,63.06 C235.12391,63.2023803 232.338959,62.5061425 229.93,61.06 C228.097366,59.9476836 226.984547,57.9537247 227,55.81 C227.02115,54.3191635 227.603125,52.8910038 228.63,51.81 C229.099757,51.2526436 229.648973,50.7674463 230.26,50.37 L230.26,49.57 C229.357943,48.5611979 228.90333,47.2298306 229,45.88 C229.039374,44.4905266 229.546782,43.1550577 230.44,42.09 C230.867101,41.5585346 231.361208,41.0845961 231.91,40.68 L231.91,39.58 C229.534315,37.7933226 228.164517,34.9718356 228.23,32 C228.156563,29.3360857 229.296992,26.782995 231.33,25.06 C233.478656,23.2803064 236.212852,22.3641545 239,22.49 C240.16633,22.4985493 241.325184,22.6770936 242.44,23.02 L251,23.02 L251,24.86 L247.64,26.3 C248.85418,27.8239481 249.554343,29.6933839 249.64,31.64 C249.68148,33.1103471 249.398079,34.5717402 248.81,35.92 C248.270808,37.0673513 247.497585,38.0892329 246.54,38.92 C244.43237,40.6883751 241.750234,41.6239212 239,41.55 C237.508572,41.6131696 236.017993,41.4065211 234.6,40.94 C233.640065,41.8460238 233.1156,43.1207642 233.16,44.44 C233.16,45.7733333 234.006667,46.44 235.7,46.44 L244.57,46.46 Z M231.65,54.24 C231.633261,54.9473279 231.690235,55.6544758 231.82,56.35 C231.942385,56.8877725 232.224782,57.3758661 232.63,57.75 C233.623333,58.6766667 235.44,59.14 238.08,59.14 C240.72,59.14 242.72,58.58 244.08,57.46 C245.208135,56.5206341 245.830124,55.1063492 245.76,53.64 C245.821066,52.9059255 245.64964,52.1712429 245.27,51.54 C244.779181,51.0417053 244.083779,50.8012738 243.39,50.89 L232.9,50.89 L232.53,51.48 C231.981228,52.3024656 231.67299,53.2618139 231.64,54.25 L231.65,54.24 Z M239,38.19 C240.611989,38.286871 242.192685,37.7153606 243.37,36.61 C244.481133,35.343198 245.029768,33.6792466 244.89,32 C244.957059,30.374417 244.390625,28.7862509 243.31,27.57 C242.18582,26.4091559 240.613602,25.7926714 239,25.88 C237.351597,25.8017228 235.74902,26.4354692 234.6,27.62 C233.518863,28.8172774 232.945172,30.3877583 233,32 C233,34.8466667 234.146667,36.7433333 236.44,37.69 C237.252337,38.0227665 238.122151,38.1926519 239,38.19 Z" id="Shape"></path>
            <path d="M182.6,0 C177.452706,-3.15180848e-16 173.28,4.17270613 173.28,9.32 C173.28,14.4672939 177.452706,18.64 182.6,18.64 C187.747294,18.64 191.92,14.4672939 191.92,9.32 C191.92,6.84818231 190.938074,4.47760385 189.190235,2.7297648 C187.442396,0.981925752 185.071818,1.51355181e-16 182.6,0 Z M179.22,8.62 C177.563146,8.62 176.22,7.27685425 176.22,5.62 C176.22,3.96314575 177.563146,2.62 179.22,2.62 C180.876854,2.62 182.22,3.96314575 182.22,5.62 C182.22,6.41564947 181.903929,7.17871121 181.34132,7.74132034 C180.778711,8.30392948 180.015649,8.62 179.22,8.62 Z" id="Shape"></path>
        </g>
    </g>
</svg>

<svg xmlns="http://www.w3.org/2000/svg" viewBox="0 0 251 63.07"><defs><style>.cls-1{fill:#f38027;}.cls-2{fill:#fff;}</style></defs><title>fastspring-logo-orange-white</title><g id="Layer_2" data-name="Layer 2"><g id="Layer_1-2" data-name="Layer 1"><path class="cls-1" d="M182.58,25.84c4.5.1,9.1,1.12,9.82,2.16a1.47,1.47,0,0,0,1.27,1.51,1.52,1.52,0,0,0,1.28-1.67c0-4.17-6.68-5.2-12.32-5.34h0c-4.43,0-11.92,1.23-11.92,5.84a3.9,3.9,0,0,0,1.22,2.83l0,0,0,0a7.28,7.28,0,0,0,1.89,1.28c-1.74.85-3,2.08-3.15,3.82a3.84,3.84,0,0,0,0,.42c0,2.94,3,4.5,6.4,5.25a24.64,24.64,0,0,0,5.52.6,16.86,16.86,0,0,1,7.81,1.72,1,1,0,0,1-.07,1.87,18.71,18.71,0,0,1-7.72,1.4c-4.5-.1-9.1-1.12-9.82-2.16a1.23,1.23,0,0,0-1.27-1.51,1.52,1.52,0,0,0-1.28,1.67c0,4.17,6.68,5.2,12.32,5.34h0c4.43,0,11.92-1.23,11.92-5.84a3.9,3.9,0,0,0-1.22-2.83l0,0,0,0a7.28,7.28,0,0,0-1.89-1.28c1.74-.85,3-2.08,3.15-3.82a3.93,3.93,0,0,0,0-.42c0-2.94-3-4.5-6.4-5.25a24.66,24.66,0,0,0-5.52-.6c-3.52,0-5.87-.46-8-1.8a.93.93,0,0,1,0-1.63C176.13,26.43,178.69,25.85,182.58,25.84Zm0,8.35a25.11,25.11,0,0,1,3.53.24,14,14,0,0,1,4.68,1.46,1,1,0,0,1,0,1.66A13.76,13.76,0,0,1,186.4,39a24.77,24.77,0,0,1-3.81.28,25.11,25.11,0,0,1-3.53-.24,14,14,0,0,1-4.68-1.46,1,1,0,0,1,0-1.66,13.76,13.76,0,0,1,4.43-1.42A24.77,24.77,0,0,1,182.6,34.19Z"/><path class="cls-1" d="M11.86,36,4.6,35.93v15H0V16.79H18.76a1.26,1.26,0,0,0,0,.25l0,.68a6.41,6.41,0,0,1-.55,2.86l-4.52-.15-2.11-.05-2.31-.05Q7,20.28,4.6,20.28V32.56H6.08l1.91,0H10.1l2.84-.06,4.5-.09a2.15,2.15,0,0,0,0,.3l0,.83a9.52,9.52,0,0,1-.33,2.59Q14.34,36.05,11.86,36Z"/><path class="cls-1" d="M35.25,49a8.25,8.25,0,0,1-6.38,2.43,8.41,8.41,0,0,1-6.14-2.3,7.84,7.84,0,0,1-2.3-5.87q0-6.17,5.34-7.66a18.66,18.66,0,0,1,3.9-.61l6.73-.37V32q0-3.15-1.28-4.49T30.24,26.2A13.56,13.56,0,0,0,23.48,28a7.48,7.48,0,0,1-1.36-3.42,18.76,18.76,0,0,1,8-2.08,20.13,20.13,0,0,1,5.62.6,7.35,7.35,0,0,1,3.1,1.75Q41,27,41,31.68V46.79l2.72,2.78V50.9H39.1L37,49Zm-4.54-1.36a8.29,8.29,0,0,0,5.69-1.95V37.84l-6.17.4q-5.1.27-5.1,4.75,0,3.74,3.31,4.43A11,11,0,0,0,30.72,47.64Z"/><path class="cls-1" d="M64,27.35A12.7,12.7,0,0,0,58,26.15a8.57,8.57,0,0,0-3.91.61,3.88,3.88,0,0,0-1.52,1.48,4.21,4.21,0,0,0-.47,2A5.36,5.36,0,0,0,52.29,32a2.49,2.49,0,0,0,.84,1.09,10.69,10.69,0,0,0,3.92,1.52A27.89,27.89,0,0,1,61.45,36a8.69,8.69,0,0,1,2.63,1.64,7,7,0,0,1,2,5.37q0,6.06-6,7.85a15.4,15.4,0,0,1-4.3.59,25,25,0,0,1-8.6-1.31,8.81,8.81,0,0,1,.69-3.82,26.14,26.14,0,0,0,6.35,1.17q2.14,0,3.23-.09a5.46,5.46,0,0,0,1.92-.49q1.79-.85,1.79-3.5a3.63,3.63,0,0,0-2.72-3.71,20.28,20.28,0,0,0-2.24-.59q-8.92-1.79-8.92-7.9a7.8,7.8,0,0,1,2.94-6.57q2.78-2.14,7.9-2.14a15.23,15.23,0,0,1,7.13,1.39A8.25,8.25,0,0,1,64,27.35Z"/><path class="cls-1" d="M87.77,49.59a11.7,11.7,0,0,1-6.91,1.84q-5.69,0-6.81-4.54a14.38,14.38,0,0,1-.37-3.47V27.64H69.8a17.35,17.35,0,0,1-.11-1.92q0-.83.11-1.9h3.87V19l2.88-3.26h1.71v8.12h8.06a12.14,12.14,0,0,1,.08,1.6,5,5,0,0,1-.59,2.22H78.26V43.42a4.81,4.81,0,0,0,.83,3.14,3.64,3.64,0,0,0,2.9,1,9.74,9.74,0,0,0,4.55-1.33A7.27,7.27,0,0,1,87.77,49.59Z"/><path class="cls-2" d="M95.48,49.82a13.1,13.1,0,0,1,1-4A26,26,0,0,0,104,47.28a21.65,21.65,0,0,0,4.4-.33,6.13,6.13,0,0,0,2.32-1,4.45,4.45,0,0,0,1.63-3.87,4.9,4.9,0,0,0-1.16-3.69,10.92,10.92,0,0,0-4.72-2,30.13,30.13,0,0,1-5.45-1.8,11.24,11.24,0,0,1-3.16-2.14,8.28,8.28,0,0,1-2.24-6.13q0-5.17,3.27-7.76,3.06-2.44,8.54-2.44A17.6,17.6,0,0,1,116.23,18a7.92,7.92,0,0,1-1.43,3.62,12.71,12.71,0,0,0-6.67-1.53q-4.16,0-5.83,1.29a4.75,4.75,0,0,0-1.67,4,4.82,4.82,0,0,0,1.28,3.74,11.9,11.9,0,0,0,4.85,2.14,38.42,38.42,0,0,1,5.4,1.73,10.44,10.44,0,0,1,3.09,2q2.24,2.11,2.24,6.33,0,5.27-2.89,7.74t-8.89,2.56A26.92,26.92,0,0,1,95.48,49.82Z"/><path class="cls-2" d="M132.93,51.43a24.26,24.26,0,0,1-5.26-.53V61.44h-4.59V26.58l-2.16-2.22V23H125l2.16,1.9h1.68a8.09,8.09,0,0,1,3.28-1.86,13.25,13.25,0,0,1,3.8-.57,11.38,11.38,0,0,1,3.83.69,8.82,8.82,0,0,1,3.5,2.35q3.39,3.63,3.39,11.16,0,6.81-4.06,10.89A13,13,0,0,1,132.93,51.43Zm3.68-24.72a15.21,15.21,0,0,0-4-.45,9.07,9.07,0,0,0-5,1.76V47.37a14,14,0,0,0,4,.53,10.39,10.39,0,0,0,4.11-.8A9.11,9.11,0,0,0,139,44.84a11.75,11.75,0,0,0,2.75-8.14Q141.77,28.12,136.61,26.71Z"/><path class="cls-2" d="M165.68,27.62a7.3,7.3,0,0,0-3-.53,6,6,0,0,0-4.59,1.74,4.3,4.3,0,0,0-1,1.74V50.9h-4.59V26.58l-2.16-2.22V23h3.84l2.59,2.67h1.09a7.84,7.84,0,0,1,3.76-2.83,5.41,5.41,0,0,1,2-.37,12.64,12.64,0,0,1,3.5.37A10.11,10.11,0,0,1,165.68,27.62Z"/><path class="cls-2" d="M217.27,27.75q-1.47-1.49-5.13-1.5a8.87,8.87,0,0,0-5.85,1.82V50.9h-4.59V26.58l-2.16-2.22V23h4.32l1.87,1.9h1.71a10,10,0,0,1,3.4-1.84,12.47,12.47,0,0,1,3.72-.59,9.63,9.63,0,0,1,3.52.65A7.82,7.82,0,0,1,221,25a9.44,9.44,0,0,1,2.4,6.81V50.9h-4.62V32.4A6.41,6.41,0,0,0,217.27,27.75Z"/><path class="cls-2" d="M244.57,46.46q6.14,0,6.14,7.13a8.2,8.2,0,0,1-3.28,6.75q-3.42,2.72-9.5,2.72a14.15,14.15,0,0,1-8-2A6.09,6.09,0,0,1,227,55.81a5.93,5.93,0,0,1,1.63-4,7.43,7.43,0,0,1,1.63-1.44v-.8A5,5,0,0,1,229,45.88a6.17,6.17,0,0,1,1.44-3.79,7.9,7.9,0,0,1,1.47-1.41V39.58A9.23,9.23,0,0,1,228.23,32a8.78,8.78,0,0,1,3.1-6.94A11.23,11.23,0,0,1,239,22.49a12,12,0,0,1,3.44.53H251v1.84l-3.36,1.44a9.22,9.22,0,0,1,2,5.34,10,10,0,0,1-.83,4.28,9.09,9.09,0,0,1-2.27,3A11.26,11.26,0,0,1,239,41.55a12.4,12.4,0,0,1-4.4-.61,4.6,4.6,0,0,0-1.44,3.5q0,2,2.54,2Zm-12.92,7.78a10.19,10.19,0,0,0,.17,2.11,2.73,2.73,0,0,0,.81,1.4q1.49,1.39,5.45,1.39t6-1.68a4.68,4.68,0,0,0,1.68-3.82,3.51,3.51,0,0,0-.49-2.1,2.24,2.24,0,0,0-1.88-.65H232.9l-.37.59A5.31,5.31,0,0,0,231.64,54.25ZM239,38.19a5.87,5.87,0,0,0,4.37-1.58A6.21,6.21,0,0,0,244.89,32a6.28,6.28,0,0,0-1.58-4.43A5.58,5.58,0,0,0,239,25.88a5.75,5.75,0,0,0-4.4,1.74A6.22,6.22,0,0,0,233,32q0,4.27,3.44,5.69A6.7,6.7,0,0,0,239,38.19Z"/><path class="cls-1" d="M182.6,0a9.32,9.32,0,1,0,9.32,9.32A9.32,9.32,0,0,0,182.6,0Zm-3.38,8.62a3,3,0,1,1,3-3A3,3,0,0,1,179.22,8.62Z"/></g></g></svg>
